SVG_Azure_Grouped/Dynamics 365/Application Sales.svg

<?xml version="1.0" encoding="UTF-8" standalone="no"?>
<!-- Generated by Microsoft Visio, SVG Export Application Sales.svg Page-1 -->

<svg
   xmlns:dc="http://purl.org/dc/elements/1.1/"
   xmlns:cc="http://creativecommons.org/ns#"
   xmlns:rdf="http://www.w3.org/1999/02/22-rdf-syntax-ns#"
   xmlns:svg="http://www.w3.org/2000/svg"
   xmlns="http://www.w3.org/2000/svg"
   xmlns:sodipodi="http://sodipodi.sourceforge.net/DTD/sodipodi-0.dtd"
   xmlns:inkscape="http://www.inkscape.org/namespaces/inkscape"
   width="0.78738904in"
   height="0.78742516in"
   viewBox="0 0 56.692004 56.694445"
   xml:space="preserve"
   class="st6"
   version="1.1"
   id="svg68"
   sodipodi:docname="Application Sales.svg"
   style="font-size:12px;overflow:visible;color-interpolation-filters:sRGB;fill:none;fill-rule:evenodd;stroke-linecap:square;stroke-miterlimit:3"
   inkscape:version="0.92.5 (2060ec1f9f, 2020-04-08)"><metadata
   id="metadata72"><rdf:RDF><cc:Work
       rdf:about=""><dc:format>image/svg+xml</dc:format><dc:type
         rdf:resource="http://purl.org/dc/dcmitype/StillImage" /></cc:Work></rdf:RDF></metadata><sodipodi:namedview
   pagecolor="#ffffff"
   bordercolor="#666666"
   borderopacity="1"
   objecttolerance="10"
   gridtolerance="10"
   guidetolerance="10"
   inkscape:pageopacity="0"
   inkscape:pageshadow="2"
   inkscape:window-width="640"
   inkscape:window-height="480"
   id="namedview70"
   showgrid="false"
   inkscape:zoom="1.8294028"
   inkscape:cx="37.795258"
   inkscape:cy="19.147472"
   inkscape:window-x="0"
   inkscape:window-y="0"
   inkscape:window-maximized="0"
   inkscape:current-layer="svg68" />
	<style
   type="text/css"
   id="style2">
	<![CDATA[
		.st1 {fill:url(#grad0-6);stroke:none;stroke-linecap:butt;stroke-width:6.04396}
		.st2 {fill:#000000;fill-opacity:0.32;stroke:none;stroke-linecap:butt;stroke-width:6.04396}
		.st3 {fill:#000000;fill-opacity:0.24;stroke:none;stroke-linecap:butt;stroke-width:6.04396}
		.st4 {fill:url(#grad0-14);stroke:none;stroke-linecap:butt;stroke-width:6.04396}
		.st5 {fill:url(#grad0-23);stroke:none;stroke-linecap:butt;stroke-width:6.04396}
		.st6 {fill:none;fill-rule:evenodd;font-size:12px;overflow:visible;stroke-linecap:square;stroke-miterlimit:3}
	]]>
	</style>

	<defs
   id="Patterns_And_Gradients">
		<linearGradient
   id="grad0-6"
   x1="0"
   y1="47.1464"
   x2="49.606201"
   y2="47.1464"
   gradientUnits="userSpaceOnUse">
			<stop
   offset="0"
   stop-color="#0078d4"
   stop-opacity="1"
   id="stop4" />
			<stop
   offset="1"
   stop-color="#2064ae"
   stop-opacity="1"
   id="stop6" />
		</linearGradient>
		<linearGradient
   id="grad0-14"
   x1="0"
   y1="63.68"
   x2="33.07"
   y2="63.68"
   gradientUnits="userSpaceOnUse">
			<stop
   offset="0"
   stop-color="#40c4f5"
   stop-opacity="1"
   id="stop9" />
			<stop
   offset="1"
   stop-color="#0095e6"
   stop-opacity="1"
   id="stop11" />
		</linearGradient>
		<linearGradient
   id="grad0-23"
   x1="0"
   y1="81.4"
   x2="15.35"
   y2="81.4"
   gradientUnits="userSpaceOnUse">
			<stop
   offset="0"
   stop-color="#a7f2ff"
   stop-opacity="1"
   id="stop14" />
			<stop
   offset="1"
   stop-color="#7cecff"
   stop-opacity="1"
   id="stop16" />
		</linearGradient>
	</defs>
	<g
   id="g66"
   transform="translate(-6.04396,-6.042434)">
		<title
   id="title20">Page-1</title>
		<g
   id="group21201-1"
   transform="translate(6.04396,-34.0157)">
			<title
   id="title22">Application Sales.21201</title>
			<g
   id="group21202-2">
				<title
   id="title24">g32</title>
				<g
   id="shape21203-3">
					<title
   id="title26">circle5</title>
					<circle
   cx="24.803101"
   cy="71.949501"
   class="st1"
   id="ellipse28"
   r="24.803101"
   style="fill:url(#grad0-6);stroke:none;stroke-width:6.04396009;stroke-linecap:butt" />
				</g>
				<g
   id="shape21204-7"
   transform="translate(23.622,-22.4409)">
					<title
   id="title31">path7</title>
					<path
   d="m 32.88,95.32 c 0.13,-1.08 0.19,-2.18 0.19,-3.29 0,-15.66 -12.69,-28.35 -28.35,-28.35 -1.11,0 -2.21,0.07 -3.28,0.19 C 0.59,64.23 0,65.07 0,66.04 v 30.71 h 30.71 c 0.97,0 1.81,-0.59 2.17,-1.43 z"
   class="st2"
   id="path33"
   inkscape:connector-curvature="0"
   style="fill:#000000;fill-opacity:0.31999996;stroke:none;stroke-width:6.04396009;stroke-linecap:butt" />
				</g>
				<g
   id="shape21205-9"
   transform="translate(23.622,-23.3976)">
					<title
   id="title36">path11</title>
					<path
   d="m 32.88,95.32 c 0.13,-1.08 0.19,-2.18 0.19,-3.29 0,-15.66 -12.69,-28.35 -28.35,-28.35 -1.11,0 -2.21,0.07 -3.28,0.19 C 0.59,64.23 0,65.07 0,66.04 v 30.71 h 30.71 c 0.97,0 1.81,-0.59 2.17,-1.43 z"
   class="st3"
   id="path38"
   inkscape:connector-curvature="0"
   style="fill:#000000;fill-opacity:0.23999999;stroke:none;stroke-width:6.04396009;stroke-linecap:butt" />
				</g>
				<g
   id="shape21206-11"
   transform="translate(23.622,-23.622)">
					<title
   id="title41">path15</title>
					<path
   d="m 32.88,95.32 c 0.13,-1.08 0.19,-2.18 0.19,-3.29 0,-15.66 -12.69,-28.35 -28.35,-28.35 -1.11,0 -2.21,0.07 -3.28,0.19 C 0.59,64.23 0,65.07 0,66.04 v 30.71 h 30.71 c 0.97,0 1.81,-0.59 2.17,-1.43 z"
   class="st4"
   id="path43"
   inkscape:connector-curvature="0"
   style="fill:url(#grad0-14);stroke:none;stroke-width:6.04396009;stroke-linecap:butt" />
				</g>
				<g
   id="group21207-15"
   transform="translate(23.622,-22.4409)">
					<title
   id="title46">g30</title>
					<g
   id="shape21208-16">
						<title
   id="title48">path20</title>
						<path
   d="m 0,81.4 h 12.99 c 1.31,0 2.36,1.06 2.36,2.36 V 96.75 H 0 Z"
   class="st2"
   id="path50"
   inkscape:connector-curvature="0"
   style="fill:#000000;fill-opacity:0.31999996;stroke:none;stroke-width:6.04396009;stroke-linecap:butt" />
					</g>
					<g
   id="shape21209-18"
   transform="translate(0,-0.956693)">
						<title
   id="title53">path24</title>
						<path
   d="m 0,81.4 h 12.99 c 1.31,0 2.36,1.06 2.36,2.36 V 96.75 H 0 Z"
   class="st3"
   id="path55"
   inkscape:connector-curvature="0"
   style="fill:#000000;fill-opacity:0.23999999;stroke:none;stroke-width:6.04396009;stroke-linecap:butt" />
					</g>
					<g
   id="shape21210-20"
   transform="translate(0,-1.1811)">
						<title
   id="title58">path28</title>
						<path
   d="m 0,81.4 h 12.99 c 1.31,0 2.36,1.06 2.36,2.36 V 96.75 H 0 Z"
   class="st5"
   id="path60"
   inkscape:connector-curvature="0"
   style="fill:url(#grad0-23);stroke:none;stroke-width:6.04396009;stroke-linecap:butt" />
					</g>
				</g>
			</g>
		</g>
	</g>
</svg>

<?xml version="1.0" encoding="UTF-8" standalone="no"?>
<!DOCTYPE svg PUBLIC "-//W3C//DTD SVG 1.1//EN" "http://www.w3.org/Graphics/SVG/1.1/DTD/svg11.dtd">
<!-- Generated by Microsoft Visio, SVG Export Application Sales.svg Page-1 -->
<svg xmlns="http://www.w3.org/2000/svg" xmlns:xlink="http://www.w3.org/1999/xlink" xmlns:ev="http://www.w3.org/2001/xml-events"
		width="0.955289in" height="1.34379in" viewBox="0 0 68.7808 96.7526" xml:space="preserve" color-interpolation-filters="sRGB"
		class="st6">
	<style type="text/css">
	<![CDATA[
		.st1 {fill:url(#grad0-6);stroke:none;stroke-linecap:butt;stroke-width:6.04396}
		.st2 {fill:#000000;fill-opacity:0.32;stroke:none;stroke-linecap:butt;stroke-width:6.04396}
		.st3 {fill:#000000;fill-opacity:0.24;stroke:none;stroke-linecap:butt;stroke-width:6.04396}
		.st4 {fill:url(#grad0-14);stroke:none;stroke-linecap:butt;stroke-width:6.04396}
		.st5 {fill:url(#grad0-23);stroke:none;stroke-linecap:butt;stroke-width:6.04396}
		.st6 {fill:none;fill-rule:evenodd;font-size:12px;overflow:visible;stroke-linecap:square;stroke-miterlimit:3}
	]]>
	</style>

	<defs id="Patterns_And_Gradients">
		<linearGradient id="grad0-6" x1="0" y1="0" x2="1" y2="0" gradientTransform="rotate(61.828233306954 0.5 0.5)">
			<stop offset="0" stop-color="#0078d4" stop-opacity="1"/>
			<stop offset="1" stop-color="#2064ae" stop-opacity="1"/>
		</linearGradient>
		<linearGradient id="grad0-14" x1="0" y1="0" x2="1" y2="0" gradientTransform="rotate(42.205140601674 0.5 0.5)">
			<stop offset="0" stop-color="#40c4f5" stop-opacity="1"/>
			<stop offset="1" stop-color="#0095e6" stop-opacity="1"/>
		</linearGradient>
		<linearGradient id="grad0-23" x1="0" y1="0" x2="1" y2="0" gradientTransform="rotate(68.391358143792 0.5 0.5)">
			<stop offset="0" stop-color="#a7f2ff" stop-opacity="1"/>
			<stop offset="1" stop-color="#7cecff" stop-opacity="1"/>
		</linearGradient>
	</defs>
	<g>
		<title>Page-1</title>
		<g id="group20726-1" transform="translate(6.04396,-34.0157)">
			<title>Application Sales.20726</title>
			<g id="group20727-2">
				<title>g32</title>
				<g id="shape20728-3">
					<title>circle5</title>
					<ellipse cx="24.8031" cy="71.9495" rx="24.8031" ry="24.8031" class="st1"/>
				</g>
				<g id="shape20729-7" transform="translate(23.622,-22.4409)">
					<title>path7</title>
					<path d="M32.88 95.32 C33.01 94.24 33.07 93.14 33.07 92.03 C33.07 76.37 20.38 63.68 4.72 63.68 C3.61 63.68 2.51
								 63.75 1.44 63.87 C0.59 64.23 0 65.07 0 66.04 L0 96.75 L30.71 96.75 C31.68 96.75 32.52 96.16 32.88
								 95.32 Z" class="st2"/>
				</g>
				<g id="shape20730-9" transform="translate(23.622,-23.3976)">
					<title>path11</title>
					<path d="M32.88 95.32 C33.01 94.24 33.07 93.14 33.07 92.03 C33.07 76.37 20.38 63.68 4.72 63.68 C3.61 63.68 2.51
								 63.75 1.44 63.87 C0.59 64.23 0 65.07 0 66.04 L0 96.75 L30.71 96.75 C31.68 96.75 32.52 96.16 32.88
								 95.32 Z" class="st3"/>
				</g>
				<g id="shape20731-11" transform="translate(23.622,-23.622)">
					<title>path15</title>
					<path d="M32.88 95.32 C33.01 94.24 33.07 93.14 33.07 92.03 C33.07 76.37 20.38 63.68 4.72 63.68 C3.61 63.68 2.51
								 63.75 1.44 63.87 C0.59 64.23 0 65.07 0 66.04 L0 96.75 L30.71 96.75 C31.68 96.75 32.52 96.16 32.88
								 95.32 Z" class="st4"/>
				</g>
				<g id="group20732-15" transform="translate(23.622,-22.4409)">
					<title>g30</title>
					<g id="shape20733-16">
						<title>path20</title>
						<path d="M0 81.4 L12.99 81.4 C14.3 81.4 15.35 82.46 15.35 83.76 L15.35 96.75 L0 96.75 L0 81.4 Z"
								class="st2"/>
					</g>
					<g id="shape20734-18" transform="translate(0,-0.956693)">
						<title>path24</title>
						<path d="M0 81.4 L12.99 81.4 C14.3 81.4 15.35 82.46 15.35 83.76 L15.35 96.75 L0 96.75 L0 81.4 Z"
								class="st3"/>
					</g>
					<g id="shape20735-20" transform="translate(0,-1.1811)">
						<title>path28</title>
						<path d="M0 81.4 L12.99 81.4 C14.3 81.4 15.35 82.46 15.35 83.76 L15.35 96.75 L0 96.75 L0 81.4 Z"
								class="st5"/>
					</g>
				</g>
			</g>
		</g>
	</g>
</svg>
